dist/img/icons/search.svg

<svg width="25" height="26" viewBox="0 0 25 26" fill="none" xmlns="http://www.w3.org/2000/svg">
<path fill-rule="evenodd" clip-rule="evenodd" d="M18.6662 10.4566C18.6662 15.1495 14.913 18.9132 10.3331 18.9132C5.75319 18.9132 2 15.1495 2 10.4566C2 5.76367 5.75319 2 10.3331 2C14.913 2 18.6662 5.76367 18.6662 10.4566ZM17.043 18.4089C15.2376 19.9703 12.8942 20.9132 10.3331 20.9132C4.62628 20.9132 0 16.2316 0 10.4566C0 4.68157 4.62628 0 10.3331 0C16.0399 0 20.6662 4.68157 20.6662 10.4566C20.6662 12.9153 19.8276 15.1759 18.424 16.9613L23.2709 21.8661L23.9738 22.5774L22.568 24L21.8651 23.2887L17.043 18.4089Z" fill="#0B0B0B"/>
</svg>

<svg width="25" height="26" viewBox="0 0 25 26" fill="none" xmlns="http://www.w3.org/2000/svg"><path fill-rule="evenodd" clip-rule="evenodd" d="M18.666 10.457c0 4.692-3.753 8.456-8.333 8.456S2 15.15 2 10.457 5.753 2 10.333 2s8.333 3.764 8.333 8.457zm-1.623 7.952a10.221 10.221 0 01-6.71 2.504C4.626 20.913 0 16.232 0 10.457 0 4.682 4.626 0 10.333 0s10.333 4.682 10.333 10.457c0 2.458-.838 4.719-2.242 6.504l4.847 4.905.703.711L22.568 24l-.703-.711-4.822-4.88z" fill="#0B0B0B"/></svg>
